X:1113
T:Bango Fancy
M:6/8
L:1/8
C:Chas. Fowler (1995)
R:Jig
K:D
eAA fAA | cee cee | eAA fAA | c/2d/2ee c/2d/2ee :|:
aec fdA | ccc BBB | aec fdB | c/2d/2ec B/2c/2dB :|:
cAc cec | BGB BdB | cAc cec | BGB BdB :|:
cAA cee | BGG Bdd | cAA cee | BGG BdB :|:
eAA fAA | cee f/2e/2cA | eAA fAA | cAc ecA :|
cAc fdA | cAc e3 | cAc fdA | cAc e3 :||


